src/Eleven/16/symbolic/status/network-wireless-signal-weak-symbolic.svg

<?xml version="1.0" encoding="UTF-8" standalone="no"?>
<!-- Created with Inkscape (http://www.inkscape.org/) -->

<svg
   width="16"
   height="16"
   viewBox="0 0 16 16"
   version="1.1"
   id="svg427"
   inkscape:version="1.2.1 (9c6d41e410, 2022-07-14, custom)"
   sodipodi:docname="network-wireless-signal-weak-symbolic.svg"
   xmlns:inkscape="http://www.inkscape.org/namespaces/inkscape"
   xmlns:sodipodi="http://sodipodi.sourceforge.net/DTD/sodipodi-0.dtd"
   xmlns="http://www.w3.org/2000/svg"
   xmlns:svg="http://www.w3.org/2000/svg">
  <sodipodi:namedview
     id="namedview429"
     pagecolor="#ffffff"
     bordercolor="#000000"
     borderopacity="0.25"
     inkscape:showpageshadow="2"
     inkscape:pageopacity="0.0"
     inkscape:pagecheckerboard="0"
     inkscape:deskcolor="#d1d1d1"
     inkscape:document-units="px"
     showgrid="false"
     inkscape:zoom="50.125"
     inkscape:cx="8"
     inkscape:cy="8"
     inkscape:window-width="1920"
     inkscape:window-height="1011"
     inkscape:window-x="0"
     inkscape:window-y="0"
     inkscape:window-maximized="1"
     inkscape:current-layer="svg427" />
  <defs
     id="defs424" />
  <path
     d="m 8,11 c -0.5522174,-2.87e-4 -0.9993903,0.447783 -1,1 -2.874e-4,0.552852 0.4471482,1.000288 1,1 0.5522171,-6.1e-4 1.0002873,-0.447783 1,-1 -6.089e-4,-0.551583 -0.4484169,-0.999391 -1,-1 z"
     style="fill:#363636;stroke-width:1.06586;stroke-linejoin:round"
     id="path344" />
  <path
     d="M 8,2 C 4.7854206,2 1.8123674,3.7160928 0.20507794,6.5 0.06670804,6.7394278 0.14896594,7.0457064 0.3886717,7.1835938 0.6280994,7.3219636 0.9343781,7.2397058 1.0722654,7 2.5017243,4.5241046 5.1410821,3 8,3 10.858917,3 13.498277,4.5241048 14.927734,7 15.065621,7.2397062 15.3719,7.3219638 15.611328,7.1835938 15.851034,7.0457065 15.933292,6.7394278 15.794922,6.5 14.187631,3.716093 11.214579,2 8,2 Z M 8,5 C 5.8572141,5 3.87608,6.1442933 2.8046873,8 2.6659898,8.238916 2.7473303,8.5450372 2.9863279,8.6835942 3.2257557,8.8219642 3.5320343,8.7397042 3.6699217,8.5000002 4.5634837,6.9523049 6.2128756,6 8,6 c 1.7871244,0 3.436516,0.9523051 4.330078,2.5000002 0.137887,0.239706 0.444166,0.321964 0.683594,0.183594 C 13.252669,8.5450362 13.33401,8.2389159 13.195312,8 12.123921,6.1442935 10.142786,5 8,5 Z M 8,8 C 6.9290078,8 5.9378395,8.5724932 5.4023436,9.5000004 5.2636459,9.7389164 5.3449866,10.045037 5.5839842,10.183594 5.8234119,10.321964 6.1296907,10.239704 6.2675779,10 6.6252433,9.3805044 7.2846691,9.0000002 8,9.0000002 c 0.71533,0 1.3747564,0.3805042 1.7324224,0.9999998 0.137887,0.239706 0.4441656,0.321964 0.6835936,0.183594 0.238997,-0.138558 0.320338,-0.4446776 0.18164,-0.6835936 C 10.062161,8.5724932 9.070992,8 8,8 Z"
     style="opacity:0.2;fill:#363636;stroke:none;stroke-linecap:round;stroke-linejoin:round"
     id="path377" />
</svg>

<?xml version="1.0" encoding="UTF-8" standalone="no"?>
<!-- Created with Inkscape (http://www.inkscape.org/) -->

<svg
   width="16"
   height="16"
   viewBox="0 0 16 16"
   version="1.1"
   id="svg427"
   inkscape:version="1.4.2 (ebf0e940d0, 2025-05-08)"
   sodipodi:docname="network-wireless-signal-weak-symbolic.svg"
   xmlns:inkscape="http://www.inkscape.org/namespaces/inkscape"
   xmlns:sodipodi="http://sodipodi.sourceforge.net/DTD/sodipodi-0.dtd"
   xmlns="http://www.w3.org/2000/svg"
   xmlns:svg="http://www.w3.org/2000/svg">
  <sodipodi:namedview
     id="namedview429"
     pagecolor="#ffffff"
     bordercolor="#000000"
     borderopacity="0.25"
     inkscape:showpageshadow="2"
     inkscape:pageopacity="0.0"
     inkscape:pagecheckerboard="0"
     inkscape:deskcolor="#d1d1d1"
     inkscape:document-units="px"
     showgrid="false"
     inkscape:zoom="50.125"
     inkscape:cx="7.9900249"
     inkscape:cy="7.9900249"
     inkscape:window-width="1920"
     inkscape:window-height="1007"
     inkscape:window-x="0"
     inkscape:window-y="0"
     inkscape:window-maximized="1"
     inkscape:current-layer="svg427"
     showguides="true" />
  <defs
     id="defs2">
    <style
       id="current-color-scheme"
       type="text/css">
        .ColorScheme-Text { color:#363636; } .ColorScheme-Highlight { color:#4285f4; } .ColorScheme-NeutralText { color:#ff9800; } .ColorScheme-PositiveText { color:#4caf50; } .ColorScheme-NegativeText { color:#f44336; }
     </style>
  </defs>
  <path
     id="path1"
     style="opacity:1;fill:currentColor"
     class="ColorScheme-Text"
     d="M 8 11 C 7.4477844 10.999713 7.0006097 11.447786 7 12 C 6.9997126 12.552849 7.44715 13.000288 8 13 C 8.5522153 12.99939 9.0002873 12.552214 9 12 C 8.9993911 11.44842 8.5515813 11.000609 8 11 z " />
  <path
     id="path2"
     style="opacity:0.2;fill:currentColor"
     class="ColorScheme-Text"
     d="M 8 2 C 4.7854238 2 1.812366 3.7160956 0.20507812 6.5 C 0.066708365 6.7394276 0.14896634 7.0457065 0.38867188 7.1835938 C 0.62809934 7.3219633 0.93437848 7.2397056 1.0722656 7 C 2.5017231 4.5241071 5.141085 3 8 3 C 10.858914 3 13.498279 4.5241073 14.927734 7 C 15.065621 7.239706 15.3719 7.3219635 15.611328 7.1835938 C 15.851034 7.0457066 15.933292 6.7394276 15.794922 6.5 C 14.187632 3.7160958 11.214576 2 8 2 z M 8 5 C 5.8572183 5 3.876078 6.1442971 2.8046875 8 C 2.6659903 8.2389156 2.747331 8.545037 2.9863281 8.6835938 C 3.2257555 8.8219633 3.5320347 8.7397036 3.6699219 8.5 C 4.5634821 6.9523076 6.2128792 6 8 6 C 9.787121 6 11.436518 6.9523079 12.330078 8.5 C 12.467965 8.7397056 12.774244 8.8219634 13.013672 8.6835938 C 13.252669 8.5450359 13.33401 8.2389155 13.195312 8 C 12.123926 6.1442972 10.142782 5 8 5 z M 8 8 C 6.9290111 8 5.9378379 8.5724955 5.4023438 9.5 C 5.2636464 9.738915 5.3449874 10.045036 5.5839844 10.183594 C 5.8234112 10.321964 6.1296915 10.239704 6.2675781 10 C 6.6252426 9.380505 7.2846712 9 8 9 C 8.7153279 9 9.3747568 9.380505 9.7324219 10 C 9.8703083 10.239706 10.176588 10.321964 10.416016 10.183594 C 10.65501 10.045036 10.736354 9.738915 10.597656 9.5 C 10.062164 8.5724955 9.0709887 8 8 8 z " />
</svg>
